X:1
T:Patiently Waiting
T:Patiently Waiting
T:Barney Elliott Warren
T:William Gallio Schell, 1911
T:Public Domain Courtesy of the Cyber Hymnal™
T:Public Domain Courtesy of the Cyber Hymnal™
C:Barney Elliott Warren
Z:Public Domain
Z:Courtesy of the Cyber Hymnal™
%%score ( 1 2 ) ( 3 4 )
L:1/8
Q:1/4=115
M:6/4
K:Bb
V:1 treble 
V:2 treble 
V:3 bass 
V:4 bass 
V:1
 [DF]2 [B,D]2 [CE]2 [DF]2 [DF]2 [DF]>[DF] | [EG]2 [EB]2 [EB]2 [DB]4 [DF]>[DF] | %2
w: 1.~Long have they wait- ed in the|dark hea- then lands For the|
w: 2.~Long have they wait- ed for the|pure liv- ing Word, Since the|
w: 3.~Pa- tient- ly wait- ing for the|hea- ven- ly light, Pre- cious|
w: 4.~Long have they wait- ed, o- ver|two thou- sand years; Still we|
 [DF]2 [FB]2 [Fc]2 [Fd]2 [FB]2 [=EB]>[EB] | [Fc]2 [Fc]2 [Fd]2 c4 z2 | %4
w: pure liv- ing wa- ter from the|dear Sav- ior’s hands;|
w: Gos- pel of Hea- ven was pro-|claimed by the Lord;|
w: souls still are sleep- ing in a|dark, sin- ful night;|
w: leave them in dark- ness and in|dread sin- ful fears;|
 [DF]2 [B,D]2 [CE]2 [DF]2 [DF]2 [DF]>[DF] | [EG]2 [EB]2 [EB]2 [DB]4 [DF]>[DF] | %6
w: Still they are wait- ing for the|Gos- pel to come: Let us|
w: “Teach ev- ery na- tion,” our Re-|deem- er’s com- mand, Yet we|
w: Pi- ty them, bro- ther, oh, how|great is their need! They have|
w: Where is the work- er who will|leave friends and home, To de-|
 [DF]2 [FB]2 [Fc]2 [Fd]2 [DB]2 [DB]>[DB] | [Ec]2 [DB]2 [EA]2 [DB]4 z2 || %8
w: has- ten to tell them of our|hea- ven- ly home.|
w: have not en- light- ened ev- ery|dark hea- then land.|
w: no one to teach them, and no|Bi- ble to read.|
w: liv- er poor hea- thens from the|wrath that’s to come?|
"^Refrain" [DF]2 [DF]2 [DF]2 [EG]2 [DF]2 [DF]2 | [DB]2 [DB]2 [DB]2 [DB]4 z2 | %10
w: ||
w: ||
w: ||
w: ||
 [Ec]2 [Ec]2 [Ec]2 [Ec]2 [DB]2 [DB]2 | [Fd]2 [Fd]2 [Fd]2 [Fd]4 z2 | %12
w: ||
w: ||
w: ||
w: ||
 [Ge]2 [Fd]2 [=E^c]2 [Fd]2 [FB]2 F2 | [EG]2 [EB]2 [EB]2 [DB]4 [EG]2 | %14
w: ||
w: ||
w: ||
w: ||
 [DF]2 [FB]2 [Fc]2 [Fd]2 [DB]2 [DB]2 | [Ec]2 [DB]2 [EA]2 [DB]4 z2 |] %16
w: ||
w: ||
w: ||
w: ||
V:2
 x12 | x12 | x12 | x6 (F2 E2) x2 | x12 | x12 | x12 | x12 || x12 | x12 | x12 | x12 | x10 F2 | x12 | %14
 x12 | x12 |] %16
V:3
 [B,,B,]2 [B,,F,]2 [B,,F,]2 [B,,B,]2 [B,,B,]2 [B,,B,]>[B,,B,] | %1
w: ~ ~ ~ ~ ~ ~ ~|
 [E,B,]2 [E,G,]2 [E,G,]2 [B,,F,]4 [B,,B,]>[B,,B,] | %2
w: ~ ~ ~ ~ ~ ~|
 [B,,B,]2 [D,B,]2 [F,A,]2 B,2 [B,D]2 [G,D]>[G,D] | [F,A,]2 [F,A,]2 [F,B,]2 [F,A,]4 z2 | %4
w: ~ ~ ~ ~ ~ ~ ~|~ ~ ~ ~|
 [B,,B,]2 [B,,F,]2 [B,,F,]2 [B,,B,]2 [B,,B,]2 [B,,B,]>[B,,B,] | %5
w: ~ ~ ~ ~ ~ ~ ~|
 [E,B,]2 [E,G,]2 [E,G,]2 [B,,F,]4 [B,,B,]>[B,,B,] | %6
w: ~ ~ ~ ~ ~ ~|
 [B,,B,]2 [D,B,]2 [F,A,]2 B,2 B,2 [G,B,]>[G,B,] | [F,A,]2 [F,B,]2 [F,C]2 [B,,B,]4 z2 || %8
w: ~ ~ ~ ~ ~ ~ ~|~ ~ ~ ~|
 [B,,B,]2 [B,,B,]2 [B,,B,]2 [B,,B,]2 [B,,B,]2 [B,,B,]2 | [B,,B,]2 [B,,F,]2 [B,,G,]2 [B,,F,]4 z2 | %10
w: Hark! hear them call- ing from|ev- ery dark land;|
 [F,A,]2 [F,A,]2 [F,A,]2 [F,A,]2 B,2 B,2 | B,2 [F,B,]2 [D,B,]2 [B,,B,]4 z2 | %12
w: Who will o- bey the dear|Sav- ior’s com- mand?|
 B,2 B,2 B,2 B,2 [B,D]2 [D,B,]2 | [E,B,]2 [E,G,]2 [E,G,]2 [B,,F,]4 [B,,B,]2 | %14
w: Go with the Gos- pel, the|rough bil- lows brave, And|
 [B,,B,]2 [D,B,]2 [F,A,]2 B,2 B,2 [G,B,]2 | [F,A,]2 [F,B,]2 [F,C]2 [B,,B,]4 z2 |] %16
w: lead them to Je- sus, who|on- ly can save.|
V:4
 x12 | x12 | x6 B,2 x4 | x12 | x12 | x12 | x6 B,2 B,2 x2 | x12 || x12 | x12 | x8 B,2 B,2 | %11
 B,2 x10 | B,2 B,2 B,2 B,2 x4 | x12 | x6 B,2 B,2 x2 | x12 |] %16

